X:1
T:O Magnum Mysterium
T:Adrian Willaert (1545)
T:O Magnum Mysterium
C:Adrian Willaert (1545)
%%score 1 2 3 4
L:1/8
Q:1/4=72
M:4/4
K:Eb
V:1 treble nm=" " snm=" "
V:2 treble nm=" " snm=" "
V:3 treble-8 nm=" " snm=" "
V:4 bass nm=" " snm=" "
V:1
 z8 | z8 | z8 | z8 | z8 | z8 | z8 | z8 | z4 B4- | B8 | c4 e4- | e2 B2 _d4 | c4 B4- | B4 z4 | %14
w: ||||||||O||ma- gnum|* my- ste-|ri- um||
 z2 F2 G2 B2 | B2 A2 B4 | c4 B2 c2- | c2 BA B2 c2- | cB B4 =A2 | B3 _A G2 F2 | G3 A B4- | B8- | %22
w: et ad- mi-|ra- bi- le|sa- cra- men-||||* * tum||
 B4 z2 E2 | F2 F2 G3 A | B2 c4 B2 | c4 z2 B2 | B2 B2 c2 c2 | d4 z2 B2 | B3 c d2 d2 | %29
w: * ut|a- ni- ma- *|* * li-|a, ut|a- ni- ma- li-|a vi-|de- rent Do- mi-|
 e3 d/c/ B2 e2- | e2 d2 e2 B2- | B2 c2 d2 e2 | c2 f3 edc | B2 d2 c4 | d8 | z8 | z8 | z4 c4 | %38
w: num * * * na-|* * tum, vi-|* de- rent Do-|mi- num * * *|* na- *|tum,|||ia-|
 c4 A4 | B3 A GF G2 | E2 A4 GF | G2 F4 =E2 | F8- | F4 z4 | G4 A2 F2 | B4 A4 | z4 A4 | B6 G2 | %48
w: cen- tem|in * * * *|pre- se- * *|* * pi-|o.||Be- a- ta|vir- go,|be-|a- ta|
 c4 B4 | z2 _A2 G2 c2- | cB B4 =A2 | B8 | z2 B4 G2 | B2 A4 F2 | G4 A4 | G2 B3 A G2- | G2 F2 G3 A | %57
w: vir- go,|cu- ius vis-|* * * ce-|ra|me- ru-|e- runt por-|ta- *|||
 B8 | z8 | z8 | z8 | z4 B4- | B2 A2 G2 c2- | cBAG AB c2- | cB B4 =A2 | B8- | B4 z2 c2- | %67
w: re||||Do-|* mi- num Je-||* sum Chri- *|stum,|* Do-|
 c2 B2 c2 F2 | G2 B4 =A2 | B8 || G8 | B4 A4 | B8- | B8 | G8- | G4 z4 | z4 e4- | e2 d2 B2 c2- | %78
w: * mi- num Je-|sum Chri- *|stum.|A-|ve Ma-|ri-||a,||gra-|* ti- a ple|
 cB B4 =A2 | B4 z2 B2- | B2 _A2 F2 G2- | GF F4 =E2 | F4 A4- | A2 B2 c2 _d2- | dc c4 B2 | c8 | z8 | %87
w: |na, gra-|* ti- a ple-||na, Do-|* mi- nus te-||cum,||
 z8 | z8 | z8 | z2 B4 A2 | G2 c3 B B2- | B2 =A2 B4 | z2 G2 A2 F2 | B4 A4 | z4 A4 | B6 G2 | c4 B4 | %98
w: |||Do- mi-|nus te- * *|* * cum.|Be- a- ta|vir- go,|be-|a- ta|vir- go,|
 z2 A2 G2 c2- | cB B4 =A2 | B8 | z2 B4 G2 | B2 A4 F2 | G4 A4 | G2 B3 A G2- | G2 F2 G3 A | B8 | z8 | %108
w: cu- ius vis-|* * * ce-|ra|me- ru-|e- runt por-|ta- *|||re||
 z8 | z8 | z4 B4- | B2 A2 G2 c2- | cBAG AB c2- | cB B4 =A2 | B8- | B4 z2 c2- | c2 B2 c2 F2 | %117
w: ||Do-|* mi- num Je-||* sum Chri- *|stum,|* Do-|* mi- num Je-|
 G2 B4 =A2 | B8 |] %119
w: sum Chri- *|stum.|
V:2
 z4 B,4- | B,4 D3 E | F2 G4 FE | A2 A2 G4- | G4 F4 | E4 z4 | z8 | z8 | B,8- | B,4 D4 | E6 E2 | %11
w: O|_ ma- *||gnum my- ste-|* ri-|um,|||O|_ ma-|gnum my-|
 G4 F4 | E3 F GA G2- | G2 F2 G2 F2 | FEDC B,3 C | _D2 C2 G4 | E2 F2 G4 | A4 G4- | G2 E2 F4 | %19
w: ste- ri-|um _ _ _ _|_ et ad- mi-|ra- * * * * *|* bi- le|sa- cra- men-||* * tum,|
 z2 D2 D2 D2 | E3 F G3 F/E/ | D2 G4 F2 | G3 F ED C2- | C2 B,A, B,4 | G,4 z4 | z8 | z8 | %27
w: tu a- ni-|ma- * * * *|||* * * li-|a|||
 z2 F2 F2 F2 | G3 A B4 | E3 F G2 A2 | F4 E4 | E4 F2 G2 | A2 F2 B3 A | GF B4 =A2 | B8 | z8 | z8 | %37
w: vi- de- rent|Do- mi- num|na- * tum ja-|cen- tem|in prae- *|se- * * *|* * * pi-|o,|||
 z8 | F4 F4 | B,4 E3 D | CB, C2 A,2 B,2- | B,A, F,2 G,2 G,2 | F,2 C3 B, B,2- | B,2 A,2 B,4- | %44
w: |ja- cen-|tem in _|_ _ _ _ prae-|* * * se- pi-|o, in prae- se-|* pi- o,|
 B,4 z4 | B,4 C2 A,2 | _D4 C4 | z2 E2 =D2 G2- | GF F4 =E2 | F4 z2 E2- | E2 D2 E3 F | G2 F2 D2 E2 | %52
w: _|Be- a- ta|Vir- go|cu- ius vi-|* * * sce-|ra me-|* ru- e- *|runt por- ta- *|
 F4 B,2 E2- | EDFE DC D2 | B,2 E4 D2 | E3 D/C/ B,4 | z4 E4 | D2 G3 F D2 | E2 F2 G4 | C4 E4- | %60
w: |||re _ _ _|Do-|mi- num _ _|Je- sum Chri-|stum, Do-|
 E2 D2 C2 F2- | F2 ED EF G2- | G2 F4 E2 | F8 | G4 F4 | z2 F4 E2 | D2 G3 FED | EF G2 C2 F2- | %68
w: * mi- num Je-|* * * * * sum,|_ Chri- *|stum,|_ _|Do- ni-|mun Je- * * *|* * * stum Chri-|
 F2 E2 F4 | F8 || E8 | D4 F4 | G8 | F8 | E6 DC | B,4 z2 A2- | A2 G2 E3 F | G2 F2 G2 E2- | %78
w: |stum.|A-|ve Ma-|ri-|||a, gra-|* ti- a _|_ ple- * *|
 ED B,2 C4 | B,4 F4 | z2 F4 E2 | C2 _D2 C4 | C4 C4- | C2 _D2 E2 F2- | FE C2 _D4 | C8 | z8 | z8 | %88
w: |na, _|gra- ti-|a ple- *|na, Do-|* mi- num te-||cum,|||
 z2 A4 G2 | E2 G3 F F2- | F2 =E2 F2 F2 | E2 C2 F4- | F4 B,4- | B,4 z4 | B,4 C2 A,2 | _D4 C4 | %96
w: Do- mi-|num te- * *|* * cum. Be-|a- ta Vir-|* go.|_|Be- a- ta|Vir- go|
 z2 E2 =D2 G2- | GF F4 =E2 | F4 z2 E2- | E2 D2 E3 F | G2 F2 D2 E2 | F4 B,2 E2- | EDFE DC D2 | %103
w: cu- ius vi-|* * * sce-|ra me-|* ru- e- *|runt por- ta- *|||
 B,2 E4 D2 | E3 D/C/ B,4 | z4 E4 | D2 G3 F D2 | E2 F2 G4 | C4 E4- | E2 D2 C2 F2- | F2 ED EF G2- | %111
w: |re _ _ _|Do-|mi- num _ _|Je- sum Chri-|stum, Do-|* mi- num Je-|* * * * * sum,|
 G2 F4 E2 | F8 | G4 F4 | z2 F4 E2 | D2 G3 FED | EF G2 C2 F2- | F2 E2 F4 | F8 |] %119
w: _ Chri- *|stum,|_ _|Do- ni-|mun Je- * * *|* * * stum Chri-||stum.|
V:3
 z8 | z8 | B8 | c4 e4- | e2 B2 _d4 | c4 B4- | B4 z2 B2 | d2 e2 e2 d2 | e2 g2 f2 g2- | g2 fe f2 g2 | %10
w: ||O|ma- gnum|_ my- ste-|ri- um,|_ et|ad- mi- ra- bi-|le sa- cra- men-||
 c8 | B4 z2 B2 | c2 A2 e4 | d4 z2 c2 | d2 f2 f2 =e2 | f3 _e =d2 e2- | e2 c2 d2 e2- | eddc e4 | %18
w: |tum, my-|ste- ri- um|_ et|ad- mi- ra- bi-|le _ _ sa-|* cra- men- *||
 d2 B2 c4 | B8- | B4 z2 B2 | B2 B2 d2 d2 | e3 d/c/ B2 e2- | e2 d2 e4 | e4 d4 | c2 f3 edc | %26
w: |tum,|_ ut|a- ni- ma- li-|a _ _ _ _|_ _ vi-|de- rent|Do- * * * *|
 e2 d2 c2 f2- | f2 d2 d4 | z2 B2 B2 B2 | c3 d e2 A2 | B4 e4 | z8 | z8 | z4 f4 | f4 B4 | %35
w: * mi- num na-|* * tum,|vi- de- rent|Do- mi- num _|na- tum|||ja-|cen- tem|
 e3 d cB c2 | A2 B3 AGF | G2 G2 F4 | A3 B c4 | G3 A B4 | z8 | B4 c4- | c2 A2 _d4 | c4 z2 e2 | %44
w: in _ _ _ _|_ prae- * * *|se- pi- o,|_ _ _|||Be- a-|* ta Vir-|go, cu-|
 =d2 g3 f f2- | f2 =e2 f4- | f8 | B4 z2 B2- | B2 A2 B3 c | _d2 c4 A2 | B4 c4 | B8 | B4 G2 B2- | %53
w: ius vi- * *|* sce- ra|_|* me-|* ru- e- *|runt por- *|ta- *|re,|me- ru- e-|
 B2 c2 A2 B2- | BG c4 BA | B4 G3 A | B4 E4 | z4 B4- | B2 A2 G2 c2- | cBAG AB c2- | c2 B4 =A2 | %61
w: * runt por- ta-|||* re|Do-|* mi- num Je-|* * * * * * sum|_ Chri- *|
 B4 z2 e2 | e2 c3 B G2 | A3 B c2 A2 | e4 c4 | z2 d4 B2 | B2 e3 dcB | c2 e4 d2 | B4 c4 | B8 || B8 | %71
w: stum, Do-|mi- num _ _|Je- * * sum|Chri- stum,|Do- mi-|num Je- * * *|sum Chri- *||stum.|A-|
 B4 c4 | e4 d2 e2- | e2 dc d4 | B4 e4- | e2 d2 B2 c2- | cB B4 =A2 | B4 z4 | z2 g4 f2 | d2 e4 d2 | %80
w: ve Ma-|ri- * *||a, gra-|* ti- a ple-||na|gra- ti-|a ple- *|
 c4 B3 G | A2 B2 G4 | F4 z4 | z8 | z8 | F6 G2 | A2 B3 c _d2- | dc c4 B2 | c4 z4 | z8 | B4 c4- | %91
w: ||na,|||Do- mi-|nus te- * *||cum||Be- a-|
 c2 A2 _d4 | c4 z2 e2 | =d2 g3 f f2- | f2 =e2 f4- | f8 | B4 z2 B2- | B2 A2 B3 c | _d2 c4 A2 | %99
w: * ta Vir-|go, cu-|ius vi- * *|* sce- ra|_|* me-|* ru- e- *|runt por- *|
 B4 c4 | B8 | B4 G2 B2- | B2 c2 A2 B2- | BG c4 BA | B4 G3 A | B4 E4 | z4 B4- | B2 A2 G2 c2- | %108
w: ta- *|re,|me- ru- e-|* runt por- ta-|||* re|Do-|* mi- num Je-|
 cBAG AB c2- | c2 B4 =A2 | B4 z2 e2 | e2 c3 B G2 | A3 B c2 A2 | e4 c4 | z2 d4 B2 | B2 e3 dcB | %116
w: * * * * * * sum|_ Chri- *|stum, Do-|mi- num _ _|Je- * * sum|Chri- stum,|Do- mi-|num Je- * * *|
 c2 e4 d2 | B4 c4 | B8 |] %119
w: sum Chri- *||stum.|
V:4
 E,8 | G,4 B,4- | B,2 E,2 G,4 | F,4 E,4- | E,4 z2 B,,2 | C,2 E,2 E,2 =D,2 | E,2 G,2 F,2 G,2- | %7
w: O|ma- gnum|_ mys- te-|ri um,|_ et|ad mi- ra- bi-|le sa- cra- men-|
 G,2 F,E, F,4 | E,4 z2 E,2 | E,4 B,4 | A,4 A,2 A,2 | E,4 B,4 | z4 z2 E,2 | G,2 B,2 B,2 =A,2 | %14
w: |tum, O|mag- num|my- ste- ri-|um _|et|ad- mi- ra- bi-|
 B,3 A, G,4 | F,4 G,2 E,2 | A,4 G,2 E,2 | F,4 E,2 C,2 | G,4 F,4 | B,,8 | E,4 E,2 E,2 | G,3 A, B,4 | %22
w: le _ sa-|cra- men- *||||tum,|ut a- ni-|ma- li- a|
 E,3 F, G,2 A,2 | F,4 E,4 | E,4 F,2 G,2 | A,2 F,2 B,3 A, | G,F, B,4 =A,2 | B,4 B,4 | E,4 z4 | z8 | %30
w: vi- * * *|de- rent|Do- * *||* * * mi-|num na-|tum||
 z8 | z8 | z4 B,4 | B,4 F,4 | B,3 A, G,F, G,2 | E,2 A,3 G,F,E, | F,2 G,3 F, F,2- | F,2 =E,2 F,4- | %38
w: ||ja-|cen- tem|in _ _ _ _|_ prae- * * *|* * * se|_ pi- o,|
 F,4 F,4 | E,4 E,4 | A,3 G, F,2 B,,2 | E,2 _D,2 C,4 | F,4 z4 | F,4 G,4- | G,2 E,2 A,4 | G,4 F,4 | %46
w: _ ja-|cen- tem|in _ _ prae-|si- pi- o|_|Be- a-|* ta Vir-|* go|
 B,,4 F,4 | G,6 E,2 | F,4 G,4 | F,4 z4 | z8 | z4 z2 E,2- | E,2 D,2 E,3 F, | G,2 F,4 B,,2 | %54
w: cu- ius|vi- sce-|ra _|_||me-|* ru- e- *|* runt por-|
 E,4 F,4 | E,4 E,4- | E,2 D,2 C,2 G,2- | G,F,E,D, E,F, G,2- | G,2 F,4 =E,2 | F,2 C3 B,A,G, | %60
w: ta- *|re Do-|* mi- num Je-|* * * * * * sum|_ Chri- *|stum, Je- * * *|
 A,2 B,2 F,4 | z2 G,2- G,F,E,D, | E,2 F,2 C,4 | F,8 | E,4 F,4 | B,,4 z2 G,2- | G,2 E,2 E,2 A,2- | %67
w: sum Chri- stum,|Do- * * * *|* mi- num|Je-|sum Chri-|stum, Do-|* mi- num Je-|
 A,2 G,2 A,2 B,2 | G,4 F,4 | B,,8 || E,8 | G,4 F,4 | E,3 F, G,2 E,2 | B,8 | E,8 | G,6 F,2 | %76
w: * sum Chri- *||stum.|A-|ve Ma-|ri- * * *||a,|gra- ti-|
 E,3 D, C,4 | B,,4 z4 | E,6 F,2 | G,3 A, B,4 | F,4 D,2 E,2 | F,2 B,,2 C,4 | F,8 | z8 | F,6 G,2 | %85
w: a _ ple-|na,|gra- ti-|a _ _|ple- * *||na.||Do- mi-|
 A,4 z2 C,2- | C,2 _D,2 E,2 F,2- | F,E,_D,C, D,4 | C,2 F,4 G,2 | A,2 B,3 A,G,F, | G,4 F,4 | z8 | %92
w: nus, Do-|* mi- nus te-||cum, Do- mi-|nus te- * * *|* cum,||
 F,4 G,4- | G,2 E,2 A,4 | G,4 F,4 | B,,4 F,4 | G,6 E,2 | F,4 G,4 | F,4 z4 | z8 | z4 z2 E,2- | %101
w: Be- a-|* ta Vir-|* go|cu- ius|vi- sce-|ra _|_||me-|
 E,2 D,2 E,3 F, | G,2 F,4 B,,2 | E,4 F,4 | E,4 E,4- | E,2 D,2 C,2 G,2- | G,F,E,D, E,F, G,2- | %107
w: * ru- e- *|* runt por-|ta- *|re Do-|* mi- num Je-|* * * * * * sum|
 G,2 F,4 =E,2 | F,2 C3 B,A,G, | A,2 B,2 F,4 | z2 G,2- G,F,E,D, | E,2 F,2 C,4 | F,8 | E,4 F,4 | %114
w: _ Chri- *|stum, Je- * * *|sum Chri- stum,|Do- * * * *|* mi- num|Je-|sum Chri-|
 B,,4 z2 G,2- | G,2 E,2 E,2 A,2- | A,2 G,2 A,2 B,2 | G,4 F,4 | B,,8 |] %119
w: stum, Do-|* mi- num Je-|* sum Chri- *||stum.|

